images_sukapura_svg/cmd/32/colorscaleformatdialog.svg

<svg height="32" viewBox="0 0 32 32" width="32" xmlns="http://www.w3.org/2000/svg" xmlns:xlink="http://www.w3.org/1999/xlink"><linearGradient id="a" gradientTransform="translate(-28 15)" gradientUnits="userSpaceOnUse" x1="14" x2="13.79661" y1="22" y2="2.135593"><stop offset="0" stop-color="#0040dd"/><stop offset="1" stop-color="#0a84ff"/></linearGradient><linearGradient id="b" gradientUnits="userSpaceOnUse" x1="25" x2="25" xlink:href="#a" y1="31" y2="19.5"/><linearGradient id="c" gradientUnits="userSpaceOnUse" x1="27" x2="27" xlink:href="#a" y1="31" y2="19.5"/><filter id="d" color-interpolation-filters="sRGB" height="1.048" width="1.048" x="-.024" y="-.024"><feGaussianBlur stdDeviation=".26"/></filter><path d="m3.1224769 3.6168524v25.9999996h26.0000001v-25.9999996zm1 1h9.0000001 1 7 1 6v5 .9999996 5 1 5 1 6h-6-1-7-1-9.0000001v-6-1-5-1-5-.9999996z" fill-opacity=".227092" filter="url(#d)"/><path d="m4 4h24v24h-24z" fill="#fff"/><path d="m13 4v5h-9v1h9v5h-9v1h9v5h-9v1h9v6h1v-6h7v6h1v-6h6v-1h-6v-5h6v-1h-6v-5h6v-1h-6v-5h-1v5h-7v-5zm1 6h7v5h-7zm0 6h7v5h-7z" fill="#bababa"/><path d="m20 20h10v10h-10z" fill="#fff"/><path d="m4 4h7v5h-7z" fill="#f58b00"/><path d="m4 10h5v5h-5z" fill="#0040dd"/><path d="m4 16h8v5h-8z" fill="#f58b00"/><path d="m4 22h4v6h-4z" fill="#0040dd"/><path d="m3 3v26h26v-26zm1 1h9 1 7 1 6v5 1 5 1 5 1 6h-6-1-7-1-9v-6-1-5-1-5-1z" fill="#69696e"/><path d="m20 20h10v10h-10z" fill="#fff"/><path d="m26.498047 20.994141a.50005.50005 0 0 0 -.457031.308593l-.728516 1.697266h-3.8125c-.277 0-.5.223-.5.5s.223.5.5.5h3.384766l-.857422 2h-2.527344c-.277 0-.5.223-.5.5s.223.5.5.5h2.099609l-.558593 1.302734a.50005.50005 0 1 0 .917968.394532l.726563-1.697266h3.814453c.277 0 .5-.223.5-.5s-.223-.5-.5-.5h-3.384766l.857422-2h2.527344c.277 0 .5-.223.5-.5s-.223-.5-.5-.5h-2.099609l.558593-1.302734a.50005.50005 0 0 0 -.460937-.703125z" fill="url(#b)"/><path d="m20 19c-.554 0-1 .446-1 1v10c0 .554.446 1 1 1h10c.554 0 1-.446 1-1v-10c0-.554-.446-1-1-1zm0 1h10v10h-10z" fill="url(#c)"/></svg>

<?xml version="1.0" encoding="UTF-8" standalone="no"?>
<svg
   xmlns:dc="http://purl.org/dc/elements/1.1/"
   xmlns:cc="http://creativecommons.org/ns#"
   xmlns:rdf="http://www.w3.org/1999/02/22-rdf-syntax-ns#"
   xmlns:svg="http://www.w3.org/2000/svg"
   xmlns="http://www.w3.org/2000/svg"
   xmlns:xlink="http://www.w3.org/1999/xlink"
   xmlns:sodipodi="http://sodipodi.sourceforge.net/DTD/sodipodi-0.dtd"
   xmlns:inkscape="http://www.inkscape.org/namespaces/inkscape"
   viewBox="0 0 32 32"
   version="1.1"
   id="svg22"
   sodipodi:docname="colorscaleformatdialog.svg"
   inkscape:export-filename="/home/rizmut/Dokumen/Rizmut/Github/libreoffice-style-sukapura/images_sukapura/cmd/32/colorscaleformatdialog.png"
   inkscape:export-xdpi="96"
   inkscape:export-ydpi="96"
   inkscape:version="0.92.3 (unknown)"
   width="32"
   height="32">
  <metadata
     id="metadata28">
    <rdf:RDF>
      <cc:Work
         rdf:about="">
        <dc:format>image/svg+xml</dc:format>
        <dc:type
           rdf:resource="http://purl.org/dc/dcmitype/StillImage" />
        <dc:title></dc:title>
      </cc:Work>
    </rdf:RDF>
  </metadata>
  <defs
     id="defs26">
    <filter
       style="color-interpolation-filters:sRGB"
       id="b"
       height="1.094553"
       width="1.097492"
       x="-0.048746001"
       y="-0.047277">
      <feGaussianBlur
         stdDeviation=".36559322"
         id="feGaussianBlur987" />
    </filter>
    <linearGradient
       gradientTransform="translate(-37.728814,-3.5658238)"
       id="a"
       gradientUnits="userSpaceOnUse"
       x1="12"
       x2="12"
       y1="3"
       y2="21">
      <stop
         offset="0"
         stop-color="#efefef"
         id="stop978" />
      <stop
         offset=".33333334"
         stop-color="#fff"
         id="stop980" />
      <stop
         offset=".8888889"
         stop-color="#fff"
         id="stop982" />
      <stop
         offset="1"
         stop-color="#f5f5f5"
         id="stop984" />
    </linearGradient>
    <linearGradient
       gradientTransform="translate(-28,15)"
       id="a-3"
       gradientUnits="userSpaceOnUse"
       x1="14"
       x2="13.79661"
       y1="22"
       y2="2.1355929">
      <stop
         offset="0"
         stop-color="#0040dd"
         id="stop2568" />
      <stop
         offset="1"
         stop-color="#0a84ff"
         id="stop2570" />
    </linearGradient>
    <linearGradient
       inkscape:collect="always"
       xlink:href="#a-3"
       id="linearGradient1483"
       x1="25"
       y1="31"
       x2="25"
       y2="19.5"
       gradientUnits="userSpaceOnUse" />
    <linearGradient
       inkscape:collect="always"
       xlink:href="#a-3"
       id="linearGradient1485"
       x1="27"
       y1="31"
       x2="27"
       y2="19.5"
       gradientUnits="userSpaceOnUse" />
    <filter
       inkscape:collect="always"
       style="color-interpolation-filters:sRGB"
       id="filter1495"
       x="-0.024"
       width="1.048"
       y="-0.024"
       height="1.048">
      <feGaussianBlur
         inkscape:collect="always"
         stdDeviation="0.26"
         id="feGaussianBlur1497" />
    </filter>
  </defs>
  <sodipodi:namedview
     pagecolor="#ffffff"
     bordercolor="#666666"
     borderopacity="1"
     objecttolerance="10"
     gridtolerance="10"
     guidetolerance="10"
     inkscape:pageopacity="0"
     inkscape:pageshadow="2"
     inkscape:window-width="1366"
     inkscape:window-height="699"
     id="namedview24"
     showgrid="true"
     inkscape:zoom="4.9166667"
     inkscape:cx="2.9817645"
     inkscape:cy="5.3953629"
     inkscape:window-x="0"
     inkscape:window-y="0"
     inkscape:window-maximized="1"
     inkscape:current-layer="g1467">
    <inkscape:grid
       type="xygrid"
       id="grid1604"
       spacingx="0.5"
       spacingy="0.5"
       empspacing="2" />
  </sodipodi:namedview>
  <g
     id="g1467">
    <path
       id="path1489"
       d="M 3.1224769,3.6168524 V 29.616852 H 29.122477 V 3.6168524 Z m 1,1 h 9.0000001 1 7 1 6 v 5 0.9999996 5 1 5 1 6 h -6 -1 -7 -1 -9.0000001 v -6 -1 -5 -1 -5 -0.9999996 z"
       style="fill:#000000;fill-opacity:0.22709164;filter:url(#filter1495)"
       inkscape:connector-curvature="0" />
    <path
       id="path2-3"
       d="M 4,4 H 28 V 28 H 4 Z"
       style="fill:#ffffff"
       inkscape:connector-curvature="0" />
    <path
       style="fill:#bababa;fill-opacity:1"
       d="M 13 4 L 13 9 L 4 9 L 4 10 L 13 10 L 13 15 L 4 15 L 4 16 L 13 16 L 13 21 L 4 21 L 4 22 L 13 22 L 13 28 L 14 28 L 14 22 L 21 22 L 21 28 L 22 28 L 22 22 L 28 22 L 28 21 L 22 21 L 22 16 L 28 16 L 28 15 L 22 15 L 22 10 L 28 10 L 28 9 L 22 9 L 22 4 L 21 4 L 21 9 L 14 9 L 14 4 L 13 4 z M 14 10 L 21 10 L 21 15 L 14 15 L 14 10 z M 14 16 L 21 16 L 21 21 L 14 21 L 14 16 z "
       id="path4-6" />
    <path
       id="path6-7"
       d="M 20,20 H 30 V 30 H 20 Z"
       style="fill:#ffffff"
       inkscape:connector-curvature="0" />
    <path
       id="path12-5"
       d="m 4,4 h 7 V 9 H 4 Z"
       style="fill:#f58b00;fill-opacity:1"
       inkscape:connector-curvature="0" />
    <path
       id="path14-6"
       d="m 4,10 h 5 v 5 H 4 Z"
       style="fill:#0040dd;fill-opacity:1"
       inkscape:connector-curvature="0" />
    <path
       id="path16-2"
       d="m 4,16 h 8 v 5 H 4 Z"
       style="fill:#f58b00;fill-opacity:1"
       inkscape:connector-curvature="0" />
    <path
       id="path18-9"
       d="m 4,22 h 4 v 6 H 4 Z"
       style="fill:#0040dd;fill-opacity:1"
       inkscape:connector-curvature="0" />
    <path
       style="fill:#69696e;fill-opacity:1"
       d="M 3 3 L 3 29 L 29 29 L 29 3 L 3 3 z M 4 4 L 13 4 L 14 4 L 21 4 L 22 4 L 28 4 L 28 9 L 28 10 L 28 15 L 28 16 L 28 21 L 28 22 L 28 28 L 22 28 L 21 28 L 14 28 L 13 28 L 4 28 L 4 22 L 4 21 L 4 16 L 4 15 L 4 10 L 4 9 L 4 4 z "
       id="path1469" />
    <rect
       style="opacity:1;fill:#ffffff;fill-opacity:1;stroke:none;stroke-width:1;stroke-linecap:round;stroke-linejoin:round;stroke-miterlimit:4;stroke-dasharray:none;stroke-opacity:0"
       id="rect1487"
       width="10"
       height="10"
       x="20"
       y="20" />
    <path
       id="path8-5"
       d="m 26.498047,20.994141 a 0.50005,0.50005 0 0 0 -0.457031,0.308593 L 25.3125,23 H 21.5 c -0.277,0 -0.5,0.223 -0.5,0.5 0,0.277 0.223,0.5 0.5,0.5 h 3.384766 l -0.857422,2 H 21.5 c -0.277,0 -0.5,0.223 -0.5,0.5 0,0.277 0.223,0.5 0.5,0.5 h 2.099609 l -0.558593,1.302734 a 0.50005,0.50005 0 1 0 0.917968,0.394532 L 24.685547,27 H 28.5 C 28.777,27 29,26.777 29,26.5 29,26.223 28.777,26 28.5,26 h -3.384766 l 0.857422,-2 H 28.5 C 28.777,24 29,23.777 29,23.5 29,23.223 28.777,23 28.5,23 h -2.099609 l 0.558593,-1.302734 a 0.50005,0.50005 0 0 0 -0.460937,-0.703125 z"
       style="fill:url(#linearGradient1483);fill-opacity:1"
       inkscape:connector-curvature="0" />
    <path
       id="path10-3"
       d="m 20,19 c -0.554,0 -1,0.446 -1,1 v 10 c 0,0.554 0.446,1 1,1 h 10 c 0.554,0 1,-0.446 1,-1 V 20 c 0,-0.554 -0.446,-1 -1,-1 z m 0,1 H 30 V 30 H 20 Z"
       style="fill:url(#linearGradient1485);fill-opacity:1"
       inkscape:connector-curvature="0" />
  </g>
</svg>
